services/projector.svg

<svg xmlns="http://www.w3.org/2000/svg" viewBox="0 0 16 16"><defs><style>.cls-1,.cls-2{fill:#231f20}.cls-1{fill-rule:evenodd}</style></defs><title>projector</title><g id="Layer_1" data-name="Layer 1"><path class="cls-1" d="M7.945 4.7a3.757 3.757 0 1 0 3.8 3.758 3.781 3.781 0 0 0-3.8-3.758zm1.41 3.835c-.12.087-1.7 1.451-1.84 1.544-.1.069-.239-.008-.239-.165v-3.09c0-.145.122-.251.244-.167.1.067 1.668 1.424 1.835 1.54a.213.213 0 0 1 .001.334z"/><path class="cls-2" d="M14 0H2a2 2 0 0 0-2 2v12a2 2 0 0 0 2 2h12a2 2 0 0 0 2-2V2a2 2 0 0 0-2-2zm0 14H2V2h3a1 1 0 0 0 1 1h4a1 1 0 0 0 1-1h3z"/></g></svg>

<svg xmlns="http://www.w3.org/2000/svg" viewBox="0 0 16 16"><defs><style>.cls-1,.cls-2{fill:#231f20;}.cls-1{fill-rule:evenodd;}</style></defs><title>projector</title><g id="Layer_1" data-name="Layer 1"><path class="cls-1" d="M7.945,4.7a3.757,3.757,0,1,0,3.8,3.758A3.781,3.781,0,0,0,7.945,4.7Zm1.41,3.835c-.12.087-1.7,1.451-1.84,1.544-.1.069-.239-.008-.239-.165V6.824c0-.145.122-.251.244-.167.1.067,1.668,1.424,1.835,1.54A.213.213,0,0,1,9.356,8.531Z"/><path class="cls-2" d="M14,0H2A2,2,0,0,0,0,2V14a2,2,0,0,0,2,2H14a2,2,0,0,0,2-2V2A2,2,0,0,0,14,0Zm0,14H2V2H5A1,1,0,0,0,6,3h4a1,1,0,0,0,1-1h3Z"/></g></svg>
